X:1
T:Slievanamon
M:6/8
L:1/4
K:E
 B/2| B3/2 c B/2| E3/2- E/2B,/2 E/2| G3/2 A- B/2| C3/2- C/2 F3/4 E/4|\
 D3/2 B, C/2| D3/2 G- F/2| E3-| E3/2 z B/2| B3/2 c B/2| E3/2- E/2B,/2 E/2|\
 G3/2 A B/2| C3/2- C/2 F3/4 E/4| D3/2 B, C/2| D3/2 G- F/2| E3-| E3/2 z|\
 E/2| D3/2 F G/2| A3/2- A A/2| A/2- G E F/2| G3/2- G/2 B3/4 B/4| ^A3/2 F G/2|\
 ^A3/2 d c/2| B3-| B z ^A3/4 B/4| c B/2 c B/2| E3/2- E/2B,/2 E/2| G3/2 =A B/2|\
 C3/2- C/2 F3/4 E/4| D3/2 B, C/2| D3/2- G F/2| E3-| E3/2 z||
